assets/icons/save/as-filled.svg

<?xml version="1.0" encoding="UTF-8" standalone="no"?>
<svg
   viewBox="0 0 24 24"
   height="24"
   width="24"
   version="1.1"
   id="svg6"
   sodipodi:docname="as-filled.svg"
   inkscape:version="1.2 (1:1.2.1+202207142221+cd75a1ee6d)"
   xmlns:inkscape="http://www.inkscape.org/namespaces/inkscape"
   xmlns:sodipodi="http://sodipodi.sourceforge.net/DTD/sodipodi-0.dtd"
   xmlns="http://www.w3.org/2000/svg"
   xmlns:svg="http://www.w3.org/2000/svg">
  <defs
     id="defs10" />
  <sodipodi:namedview
     id="namedview8"
     pagecolor="#ffffff"
     bordercolor="#666666"
     borderopacity="1.0"
     inkscape:pageshadow="2"
     inkscape:pageopacity="0.0"
     inkscape:pagecheckerboard="0"
     showgrid="true"
     inkscape:zoom="28"
     inkscape:cx="11.392857"
     inkscape:cy="12.535714"
     inkscape:window-width="1920"
     inkscape:window-height="1043"
     inkscape:window-x="0"
     inkscape:window-y="0"
     inkscape:window-maximized="1"
     inkscape:current-layer="svg6"
     inkscape:showpageshadow="2"
     inkscape:deskcolor="#d1d1d1">
    <inkscape:grid
       type="xygrid"
       id="grid918" />
  </sodipodi:namedview>
  <rect
     style="fill:#808080;fill-rule:evenodd;stroke-width:0.5;stroke-linecap:square"
     id="rect1055"
     width="14"
     height="1"
     x="5"
     y="20" />
  <rect
     style="fill:#808080;fill-rule:evenodd;stroke-width:0.5;stroke-linecap:square"
     id="rect942"
     width="4"
     height="1"
     x="15"
     y="18" />
  <rect
     style="fill:#808080;fill-rule:evenodd;stroke-width:0.5;stroke-linecap:square"
     id="rect944"
     width="2"
     height="1"
     x="17"
     y="16" />
  <path
     id="path293"
     style="fill:#808080;fill-opacity:1;fill-rule:evenodd;stroke-width:0.5;stroke-linecap:round;stroke-linejoin:round"
     d="M 10 2 L 10 8 L 6.7714844 8 L 7.0332031 8.6796875 C 7.0332031 8.6796875 7.6635204 10.315903 8.5449219 12.267578 C 9.4263233 14.219253 10.540813 16.476797 11.609375 17.8125 L 12 18.300781 L 12.390625 17.8125 C 13.459187 16.476797 14.573677 14.219253 15.455078 12.267578 C 16.336479 10.315903 16.966797 8.6796875 16.966797 8.6796875 L 17.228516 8 L 14 8 L 14 2 L 10 2 z " />
</svg>

<svg height="24" width="24" xmlns="http://www.w3.org/2000/svg"><path style="fill:gray;stroke-width:.5;stroke-linecap:square" d="M5 20h14v1H5zm10-2h4v1h-4zm2-2h2v1h-2z"/><path style="fill:gray;fill-opacity:1;stroke-width:.5;stroke-linecap:round;stroke-linejoin:round" d="M10 2v6H6.771l.262.68s.63 1.636 1.512 3.588c.881 1.951 1.996 4.209 3.064 5.544l.391.489.39-.488c1.07-1.336 2.184-3.594 3.065-5.545.881-1.952 1.512-3.588 1.512-3.588l.262-.68H14V2h-4z"/></svg>
